X:254
T:Rathlin Island
R:Reel
S:IrTrad
Z:Transcription:Jorgen Fischer(?), chords:Mike Long
M:C|
L:1/8
K:G
"Am"e2dB eA~A2|"Am"e2dB "G"GABd|"Am"e2dB eA~A2|"G"d2Bd BA~A2:|
|:"Am"A2AB "Em"EGBG|"Am"~A3B "G"de~e2|"Am"AGAB "G"dGBd|"Em"eged BA~A2:|
